( Code generated by f-engrave-1.40.py widget )
( by Scorch - 2014 )
(Settings used in f-engrave when this file was created)
(Engrave Text:F Engrave  )
(=========================================================)
(fengrave_set show_axis  1 )
(fengrave_set show_box   1 )
(fengrave_set show_thick 1 )
(fengrave_set flip       0 )
(fengrave_set mirror     0 )
(fengrave_set outer      1 )
(fengrave_set upper      1 )
(fengrave_set v_flop     0 )
(fengrave_set v_pplot    1 )
(fengrave_set bmp_long   1 )
(fengrave_set b_carve    0 )
(fengrave_set var_dis    1 )
(fengrave_set arc_fit    1 )
(fengrave_set ext_char   0 )
(fengrave_set useIMGsize 0 )
(fengrave_set YSCALE     50.8 )
(fengrave_set XSCALE     100 )
(fengrave_set LSPACE     1.1 )
(fengrave_set CSPACE     25 )
(fengrave_set WSPACE     100 )
(fengrave_set TANGLE     0.0 )
(fengrave_set TRADIUS    0 )
(fengrave_set ZSAFE      5 )
(fengrave_set ZCUT       -0.127 )
(fengrave_set STHICK     0.254 )
(fengrave_set origin     Default )
(fengrave_set justify    Left )
(fengrave_set units      mm )
(fengrave_set xorigin    0 )
(fengrave_set yorigin    0 )
(fengrave_set segarc     5.0 )
(fengrave_set accuracy   0.0254 )
(fengrave_set FEED       1200 )
(fengrave_set fontfile   "testconfigfile.cxf" )
(fengrave_set H_CALC     max_use )
(fengrave_set plotbox    no_box )
(fengrave_set boxgap     6.35 )
(fengrave_set cut_type    engrave )
(fengrave_set v_bit_angle 60 )
(fengrave_set v_bit_dia   3 )
(fengrave_set v_drv_crner 135 )
(fengrave_set v_stp_crner 200 )
(fengrave_set v_step_len  0.254 )
(fengrave_set v_acc       0.0254 )
(fengrave_set v_depth_lim  0 )
(fengrave_set v_check_all all )
(fengrave_set bmp_turnp   minority )
(fengrave_set bmp_turds   2 )
(fengrave_set bmp_alpha   1 )
(fengrave_set bmp_optto   0.2 )
(fengrave_set fontdir    "fonts" )
(fengrave_set gpre        G17 G64 P0.003 M3 S3000 M7 )
(fengrave_set gpost       M5 M9 M2 )
(fengrave_set imagefile   "/home/jieter/None" )
(fengrave_set input_type  text )
(fengrave_set clean_dia   6.35 )
(fengrave_set clean_step  50 )
(fengrave_set clean_w     50.8 )
(fengrave_set clean_v     1.27 )
(fengrave_set clean_paths  1,1,0,0,1,0 )
(fengrave_set TCODE    070  045  069  110  103  114  097  118  101  010 )
( Fontfile: courier.cxf )
#1 = 6.350  ( Safe Z )
#2 = -0.127  ( Engraving Depth Z )
(#########################################################)
G90
G91.1
G21
G17 G64 P0.003 M3 S3000 M7
F127.0  ( Set Feed Rate )
G0 Z#1
G0 Z#1
G0 Z#1
G0 X10.530 Y0.000
G1 Z#2
G1 X10.530 Y37.910
G0 Z#1
G0 X2.106 Y37.910
G1 Z#2
G1 X35.803 Y37.910
G1 X35.803 Y29.485
G0 Z#1
G0 X23.167 Y25.273
G1 Z#2
G1 X23.167 Y12.636
G0 Z#1
G0 X23.167 Y18.955
G1 Z#2
G1 X10.530 Y18.955
G0 Z#1
G0 X2.106 Y0.000
G1 Z#2
G1 X18.955 Y0.000
G0 Z#1
G0 X51.599 Y16.849
G1 Z#2
G1 X76.872 Y16.849
G0 Z#1
G0 X96.880 Y18.955
G1 Z#2
G1 X109.516 Y18.955
G0 Z#1
G0 X109.516 Y25.273
G1 Z#2
G1 X109.516 Y12.636
G0 Z#1
G0 X122.153 Y8.424
G1 Z#2
G1 X122.153 Y0.000
G1 X88.456 Y0.000
G0 Z#1
G0 X96.880 Y0.000
G1 Z#2
G1 X96.880 Y37.910
G0 Z#1
G0 X88.456 Y37.910
G1 Z#2
G1 X122.153 Y37.910
G1 X122.153 Y29.485
G0 Z#1
G0 X133.736 Y25.273
G1 Z#2
G1 X140.055 Y25.273
G1 X140.055 Y0.000
G0 Z#1
G0 X133.736 Y0.000
G1 Z#2
G1 X146.373 Y0.000
G0 Z#1
G0 X154.797 Y0.000
G1 Z#2
G1 X167.434 Y0.000
G0 Z#1
G0 X161.115 Y0.000
G1 Z#2
G1 X161.115 Y14.743
G3 X160.964 Y16.522 I-10.530 J-0.000
G3 X160.514 Y18.251 I-10.379 J-1.780
G3 X159.778 Y19.879 I-9.929 J-3.508
G3 X158.778 Y21.359 I-9.193 J-5.136
G3 X157.541 Y22.648 I-8.193 J-6.616
G3 X156.105 Y23.710 I-6.956 J-7.906
G3 X154.510 Y24.514 I-5.520 J-8.968
G3 X152.802 Y25.037 I-3.925 J-9.772
G3 X151.030 Y25.264 I-2.217 J-10.294
G3 X149.245 Y25.187 I-0.445 J-10.521
G3 X147.499 Y24.811 I1.340 J-10.445
G3 X145.842 Y24.144 I3.086 J-10.068
G3 X144.321 Y23.207 I4.743 J-9.402
G1 X143.626 Y22.646
G1 X140.055 Y19.501
G0 Z#1
G0 X183.229 Y-12.636
G1 Z#2
G1 X195.866 Y-12.636
G3 X197.252 Y-12.522 I0.000 J8.424
G3 X198.601 Y-12.180 I-1.387 J8.309
G3 X199.875 Y-11.621 I-2.735 J7.968
G3 X201.040 Y-10.860 I-4.010 J7.409
G3 X202.064 Y-9.918 I-5.174 J6.648
G3 X202.918 Y-8.820 I-6.198 J5.706
G3 X203.581 Y-7.596 I-7.053 J4.608
G3 X204.032 Y-6.280 I-7.715 J3.384
G3 X204.261 Y-4.908 I-8.167 J2.068
G1 X204.290 Y-4.212
G1 X204.290 Y25.273
G1 X212.714 Y25.273
G0 Z#1
G0 X226.404 Y25.273
G1 Z#2
G1 X232.722 Y25.273
G1 X232.722 Y0.000
G0 Z#1
G0 X226.404 Y0.000
G1 Z#2
G1 X247.465 Y0.000
G0 Z#1
G0 X232.722 Y15.653
G1 Z#2
G1 X240.427 Y22.576
G1 X241.135 Y23.158
G1 X241.891 Y23.677
G1 X242.689 Y24.128
G1 X243.524 Y24.508
G1 X244.388 Y24.813
G1 X245.275 Y25.043
G1 X246.180 Y25.194
G1 X247.094 Y25.266
G1 X248.010 Y25.259
G1 X248.923 Y25.172
G1 X249.824 Y25.005
G1 X250.708 Y24.761
G1 X251.567 Y24.441
G1 X252.395 Y24.047
G1 X253.186 Y23.583
G1 X253.933 Y23.052
G1 X254.631 Y22.458
G1 X255.275 Y21.806
G0 Z#1
G0 X271.071 Y23.077
G1 Z#2
G1 X272.270 Y24.025
G1 X273.539 Y24.876
G1 X274.872 Y25.625
G1 X276.259 Y26.266
G1 X277.693 Y26.797
G1 X279.163 Y27.213
G1 X280.662 Y27.511
G1 X282.180 Y27.692
G1 X283.707 Y27.752
G1 X284.403 Y27.723
G1 X285.094 Y27.637
G1 X285.775 Y27.494
G1 X286.443 Y27.295
G1 X287.091 Y27.042
G1 X287.717 Y26.736
G1 X288.315 Y26.380
G1 X288.882 Y25.975
G1 X289.413 Y25.525
G1 X289.905 Y25.033
G1 X290.355 Y24.502
G1 X290.760 Y23.935
G1 X291.116 Y23.337
G1 X291.422 Y22.711
G1 X291.675 Y22.063
G1 X291.874 Y21.395
G1 X292.017 Y20.714
G1 X292.103 Y20.023
G1 X292.132 Y19.327
G1 X292.132 Y0.000
G1 X300.556 Y0.000
G0 Z#1
G0 X292.131 Y6.132
G1 Z#2
G1 X290.873 Y4.956
G1 X289.522 Y3.888
G1 X288.087 Y2.934
G1 X286.579 Y2.103
G1 X285.007 Y1.398
G1 X283.382 Y0.825
G1 X281.716 Y0.388
G1 X280.020 Y0.090
G1 X278.304 Y-0.067
G1 X276.582 Y-0.083
G1 X274.864 Y0.044
G1 X274.143 Y0.155
G1 X273.435 Y0.332
G1 X272.744 Y0.570
G1 X272.077 Y0.866
G1 X271.438 Y1.220
G1 X270.832 Y1.627
G1 X270.264 Y2.085
G1 X269.737 Y2.591
G1 X269.256 Y3.140
G1 X268.824 Y3.729
G1 X268.445 Y4.353
G1 X268.122 Y5.008
G1 X267.856 Y5.688
G1 X267.651 Y6.388
G1 X267.506 Y7.104
G1 X267.425 Y7.830
G1 X267.406 Y8.560
G1 X267.451 Y9.288
G1 X267.558 Y10.010
G1 X267.728 Y10.721
G1 X267.959 Y11.413
G1 X268.248 Y12.084
G1 X268.595 Y12.726
G1 X268.996 Y13.336
G1 X269.448 Y13.909
G1 X269.948 Y14.441
G1 X270.493 Y14.928
G1 X271.077 Y15.365
G1 X271.697 Y15.751
G1 X272.349 Y16.081
G1 X273.026 Y16.353
G1 X273.724 Y16.566
G1 X274.439 Y16.718
G1 X277.390 Y17.100
G1 X280.362 Y17.267
G1 X283.337 Y17.217
G1 X286.302 Y16.949
G1 X289.238 Y16.465
G1 X292.132 Y15.769
G0 Z#1
G0 X310.033 Y25.273
G1 Z#2
G1 X322.670 Y25.273
G0 Z#1
G0 X316.352 Y25.273
G1 Z#2
G1 X328.988 Y0.000
G1 X341.625 Y25.273
G0 Z#1
G0 X347.943 Y25.273
G1 Z#2
G1 X335.306 Y25.273
G0 Z#1
G0 X363.739 Y12.636
G1 Z#2
G1 X389.012 Y12.636
G3 X388.823 Y14.813 I-12.636 J0.000
G3 X388.262 Y16.925 I-12.448 J-2.177
G3 X387.345 Y18.908 I-11.887 J-4.288
G3 X386.101 Y20.704 I-10.970 J-6.272
G3 X384.566 Y22.259 I-9.726 J-8.068
G3 X382.786 Y23.526 I-8.191 J-9.623
G3 X380.814 Y24.468 I-6.410 J-10.890
G3 X378.709 Y25.056 I-4.439 J-11.831
G3 X376.535 Y25.272 I-2.334 J-12.419
G3 X374.356 Y25.111 I-0.160 J-12.635
G3 X372.238 Y24.576 I2.019 J-12.474
G3 X370.243 Y23.685 I4.137 J-11.940
G3 X368.431 Y22.464 I6.132 J-11.049
G3 X366.857 Y20.948 I7.944 J-9.827
G3 X365.567 Y19.184 I9.518 J-8.312
G3 X364.601 Y17.225 I10.808 J-6.548
G3 X363.987 Y15.128 I11.774 J-4.588
G3 X363.743 Y12.957 I12.388 J-2.492
G3 X363.876 Y10.776 I12.632 J-0.320
G3 X364.384 Y8.651 I12.499 J1.861
G3 X365.249 Y6.645 I11.991 J3.986
G3 X366.448 Y4.818 I11.126 J5.992
G3 X367.943 Y3.224 I9.927 J7.819
G3 X369.691 Y1.913 I8.432 J9.412
G3 X371.638 Y0.922 I6.684 J10.724
G3 X373.727 Y0.281 I4.737 J11.715
G3 X375.895 Y0.009 I2.648 J12.356
G3 X378.077 Y0.115 I0.480 J12.627
G3 X380.209 Y0.596 I-1.702 J12.521
G1 X381.235 Y0.972
G1 X389.012 Y4.212
G0 Z#1
G0 X204.290 Y12.636
G1 Z#2
G3 X204.108 Y14.772 I-12.636 J0.000
G3 X203.568 Y16.846 I-12.455 J-2.136
G3 X202.685 Y18.799 I-11.915 J-4.210
G3 X201.485 Y20.575 I-11.032 J-6.163
G3 X200.002 Y22.122 I-9.832 J-7.939
G3 X198.279 Y23.397 I-8.349 J-9.486
G3 X196.365 Y24.362 I-6.625 J-10.760
G3 X194.316 Y24.989 I-4.712 J-11.725
G3 X192.190 Y25.262 I-2.662 J-12.353
G3 X190.049 Y25.171 I-0.536 J-12.625
G3 X187.953 Y24.719 I1.605 J-12.534
G3 X185.965 Y23.920 I3.700 J-12.083
G3 X184.140 Y22.796 I5.689 J-11.283
G3 X182.531 Y21.380 I7.514 J-10.160
G3 X181.184 Y19.713 I9.123 J-8.744
G3 X180.139 Y17.841 I10.469 J-7.076
G3 X179.425 Y15.821 I11.515 J-5.205
G3 X179.063 Y13.708 I12.229 J-3.184
G1 X179.017 Y12.636
G3 X179.199 Y10.501 I12.636 J-0.000
G3 X179.739 Y8.427 I12.455 J2.136
G3 X180.622 Y6.474 I11.915 J4.210
G3 X181.822 Y4.698 I11.032 J6.163
G3 X183.305 Y3.151 I9.832 J7.939
G3 X185.028 Y1.876 I8.349 J9.486
G3 X186.942 Y0.911 I6.625 J10.760
G3 X188.991 Y0.284 I4.712 J11.725
G3 X191.117 Y0.011 I2.662 J12.353
G3 X193.259 Y0.102 I0.536 J12.625
G3 X195.354 Y0.554 I-1.605 J12.534
G3 X197.343 Y1.353 I-3.700 J12.083
G3 X199.168 Y2.477 I-5.689 J11.283
G3 X200.777 Y3.893 I-7.514 J10.160
G3 X202.123 Y5.560 I-9.123 J8.744
G3 X203.168 Y7.432 I-10.469 J7.076
G3 X203.882 Y9.452 I-11.515 J5.205
G3 X204.245 Y11.565 I-12.229 J3.184
G1 X204.290 Y12.637
G0 Z#1
M5 M9 M2
